!!!!SEGMENT: pl-wtm--a-36-349-86_kagan-jakub--fata-morgana-jak-przez-pustynie.krn
!!!cenid: 19xx:17
!!!COM: Kagan, Jakub
!!!COM-rismID: pe50046719
!!!CDT: 1896/02/07-1942
!!!CNT: Polish
!!!OTL: Fata Morgana/Jak przez pustynię
!!!PDT: 1929
!!!AGN: Secular
!!!YEC: Copyright 2022 Narodowy Instytut Fryderyka Chopina (https://polishscores.org)
!!!YEM: License CC-BY-4.0 (https://creativecommons.org/licenses/by/4.0)
!!!SMS-siglum: PL-Wtm
!!!SMS-shelfmark: A.36.349/86
!!!SMS-variant:
!!!SMS-altvar:
!!!SMS-shelfwork: W
!!!NIFC-rismSourceID: 1001216274
!!!NIFC-rismChildID: 1001216274
!!!NIFC-islandoraID: pl-wtm:96490
!!!URL-pdf-islandora: https://repozytorium.nifc.pl/islandora/object/pl-wtm%3A96490/datastream/PDF/view
!!!URL-scan: https://polish.musicsources.pl/pl/lokalizacje/galeria/druki-muzyczne/21489/2 @EN{Scan on Polish Music Sources Website} @PL{Skany w portalu Dziedzictwo Muzyki Polskiej w otwartym dostępie}
!!!IIIF:
!!!ONB-nifc:
!!!AIN: 2 piano 1 vox
!!!key: d
**kern	**kern	**dynam	**kern	**text	**text
*part3	*part2	*part2	*part1	*part1	*part1
*staff3	*staff2	*	*staff1	*staff1	*staff1
*I"Piano.	*I"Piano.	*	*I"Śpiew.	*	*
*I'[pf]	*I'[pf]	*	*I'[V]	*	*
*ICklav	*ICklav	*	*ICvox	*	*
*Ipiano	*Ipiano	*	*Ivox	*	*
*clefF4	*clefG2	*	*clefG2	*	*
*k[b-]	*k[b-]	*	*k[b-]	*	*
*d:	*d:	*	*d:	*	*
*M2/4	*M2/4	*	*M2/4	*	*
=1	=1	=1	=1	=1	=1
16DD^/KL 16D	16d^/KL 16dd	f	2r	.	.
8EE^/ 8E	8e^/ 8ee	.	.	.	.
16DD^/Jk 16D	16d^/Jk 16dd	.	.	.	.
8FF^/L 8F	8f^\L 8ff	.	.	.	.
8GG#X^/J 8G#X	8g#X^\J 8gg#X	.	.	.	.
=2	=2	=2	=2	=2	=2
8AA^\L 8A	8a^\L 8aa	.	2r	.	.
8BB-^\J 8B-	8b-^\J 8bb-	.	.	.	.
8AA^/L 8A	4a^\ 4aa	.	.	.	.
8AAA^^</J 8AA	.	.	.	.	.
=3	=3	=3	=3	=3	=3
8GGG#X^^</L 8GG#X	8r	.	2r	.	.
8G#X/J 8Bn 8d 8f	16bn\LL 16dd	.	.	.	.
.	16cc#X\JJ 16ee	.	.	.	.
8G#/L 8B 8d 8f	16dd\LL 16ff	.	.	.	.
.	16dd\ 16ff	.	.	.	.
8GGG#^/J 8GG#	16ee\ 16ggn	.	.	.	.
.	16dd\JJ 16ff	.	.	.	.
=4	=4	=4	=4	=4	=4
8.AAA^/L 8.AA	8.cc#X\ 8.ee	.	2r	.	.
16GG#X/Jk 16G#X	16r	>	.	.	.
16AA/LL 16A	4r	.	.	.	.
16GGn/ 16Gn	.	.	.	.	.
16FF/ 16F	.	.	.	.	.
16EE/JJ 16E	.	]]	.	.	.
=5!|:	=5!|:	=5!|:	=5!|:	=5!|:	=5!|:
16DD/KL 16D	16d/KL 16dd	p <	16d/	1. Jak	2. Jak
8EE/ 8E	8e/ 8ee	.	8e/	przez	przez
16DD/Jk 16D	16d/Jk 16dd	.	16d/	pu-	pu-
8FF/L 8F	8f\L 8ff	.	8f/	-sty-	-sty-
8GG#X/J 8G#X	8g#X\J 8gg#X	.	8g#X/	-nię,	-nię
=6	=6	=6	=6	=6	=6
8AA\L 8A	8a\L 8aa	.	8a/	peł-	nę-
8BB-\J 8B-	8b-\J 8bb-	.	8b-\	-ną	-dzny
8AA/L 8A	4a\ 4aa	[ f	4a/	zdrad,	zbieg,
8AAA^/J 8AA	.	.	.	.	.
!!LO:LB:g=original	!	!	!	!	!
=7	=7	=7	=7	=7	=7
8DD^/L 8D	16r	pp	16r	.	.
.	8f/L 8dd	.	8dd\	I-	Po-
8A/J	.	.	.	.	.
.	16e/Jk 16cc#X	.	16cc#X\	-dę	-śród
8d/L	8f/L 8dd	.	8dd\	za	wia-
8DD/J 8D	16g/L 16ee	.	16ee\	to-	-trów
.	16f/JJ 16dd	.	16dd\	-bą	i
=8	=8	=8	=8	=8	=8
8AAA/L 8AA	2e/ 2cc#X	.	2cc#X\	w ślad,	spiek,
8A/J	.	.	.	.	.
8G/L 8c#X	.	.	.	.	.
8AAA/J 8AA	.	.	.	.	.
=9	=9	=9	=9	=9	=9
8CC#X/L 8C#X	8r	.	8r	.	.
8A/J	16c#X/LL 16e	<	16e/	Mo-	I-
.	16d/JJ 16f	.	16f/	-rze	-dę
8G/L 8c#X	8e/L 8g	.	8g/	pia-	smu-
8AAA/J 8AA	16f/L 16a	.	16a/	-sku	-tna
.	16g/JJ 16b-	[[	16b-\	prze-	przez
=10	=10	=10	=10	=10	=10
8DD/L 8D	8gM/L 8b-	>	8b-\	-dem-	ży-
8A/J	[8f/J [8a	.	[8a/	-ną	-cie
8F/L 8d	16f/LL] 16a]	] <	16a/]	.	.
.	16f/ 16a	.	16a/	I	I
8AAA/J 8AA	16g/ 16b-	.	16b-\	w o-	śnię
.	16f/JJ 16a	[[	16a/	-czach	w za-
=11	=11	=11	=11	=11	=11
8CC#X/L 8C#X	8fM/L 8a	>	8a/	ciem-	-chwy-
8A/J	[8e/J [8g	.	[8g/	-no	-cie,
8G/L 8c#X	16e/LL] 16g]	.	16g/]	.	.
.	16e/ 16g	]	16g/	I	Że
8AAA/J 8AA	16f/ 16a	.	16a/	na	złu-
.	16e/JJ 16g	.	16g/	mych	-dę
!!LO:LB:g=original	!	!	!	!	!
=12	=12	=12	=12	=12	=12
8DD/L 8D	16dM/LL 16f	<	16f/	u-	szczę-
.	16c#X/ 16e	.	16e/	-stach	-ścia
8A/J	16d/ 16f	.	16f/	słoń-	ty
.	16e/JJ 16g	.	16g/	-ca	mi
8F/L 8d	4f/ 4a	[	4a/	żar,	dasz,
8AAA/J 8AA	.	.	.	.	.
=13	=13	=13	=13	=13	=13
8EE/L 8E	8r	.	8r	.	.
8A/J	16a\LL 16cc#X	.	16cc#X\	W dal	I
.	16bn\JJ 16dd	.	16dd\	wy-	ca-
8G/L 8c#X	8cc#\L 8ee	<	8ee\	-cią-	-łu-
8AAA/J 8AA	16dd\L 16ff	.	16ff\	-gam	-ję
.	16ee\JJ 16gg	[[	16gg\	ra-	w roz-
=14	=14	=14	=14	=14	=14
8DD/L 8D	8eem\L 8gg	>	8gg\	-mio-	-ter-
8A/J	[8dd\J [8ff	.	[8ff\	-na	-ce
8G/L 8d	16dd\LL] 16ff]	.	16ff\]	.	.
.	16ff\	.	16ff\	I	Twe
8BBBn/J 8BBn	16ee\	]	16ee\	resz-	chło-
.	16dd\JJ	.	16dd\	-ta	-dne
=15	=15	=15	=15	=15	=15
.	(16qqcc/LL	.	.	.	.
.	16qqdd/	.	.	.	.
.	16qqdd#X/JJ)	.	.	.	.
!LO:SIC:o=8CCn/L 8Cn:t=kasowniki w nawiasie	!	!	!	!	!
8CCn/L 8Cn	16ee\KL	.	16ee\	ko-	ser-
.	8ccn\	.	8ccn\	-na	-ce,
8E/J 8A 8c	.	.	.	.	.
.	16ee\Jk	.	16ee\	Mych	Twe
8EE\L 8E	8ddnM\L	.	8dd\	u-	dło-
8G#X\J 8d	16cc\L	.	16cc\	-czuć	-nie
.	16bn\JJ	.	16bn\	i	i
=16	=16	=16	=16	=16	=16
8AA/L 8A	8a/L	.	2a/	wiar...	twarz...
8EE^/J 8E	8e^/J	.	.	.	.
8AA^/L 8E 8A	4c#X^/ 4e 4gn 4a	.	.	.	.
8AAA^/J 8AA	.	.	.	.	.
!!LO:LB:g=original	!	!	!	!	!
=17	=17	=17	=17	=17	=17
16DD/KL 16D	16d/KL 16dd	p <	16d/	Jak	Jak
8EE/ 8E	8e/ 8ee	.	8e/	przez	przez
16DD/Jk 16D	16d/Jk 16dd	.	16d/	pu-	pu-
8FF/L 8F	8f\L 8ff	.	8f/	-sty-	-sty-
8GG#X/J 8G#X	8g#X\J 8gg#X	.	8g#X/	-nię	-nię
=18	=18	=18	=18	=18	=18
8AA\L 8A	8a\L 8aa	.	8a/	i-	i-
8BB-\J 8B-	8b-\J 8bb-	.	8b-\	-dę	-dę
8AA/L 8A	4a\ 4aa	[ f	4a/	w dal,	w świat...
8AAA^/J 8AA	.	.	.	.	.
=19	=19	=19	=19	=19	=19
8DD^/L 8D	16r	pp	8r	.	.
.	8f/L 8dd	.	.	.	.
8A/J	.	.	16dd\	To-	Cze-
.	16e/Jk 16cc#X	.	16cc#X\	-nąc	-muś
8d/L	8f/L 8dd	.	8dd\	śród	spo-
8DD/J 8D	16g/L 16ee	.	16ee\	pia-	-kój
.	16f/JJ 16dd	.	16dd\	-sku	mój
=20	=20	=20	=20	=20	=20
8AAA/L 8AA	2e/ 2cc#X	.	2cc#X\	fal,	skradł?
8A/J	.	.	.	.	.
8G/L 8c#X	.	.	.	.	.
8AAA/J 8AA	.	.	.	.	.
=21	=21	=21	=21	=21	=21
8CC#X/L 8C#X	8r	.	8r	.	.
8A/J	16c#X/LL 16e	.	16e/	O-	Cze-
.	16d/JJ 16f	.	16f/	-pa-	-mu
8G/L 8c#X	8e/L 8g	<	8g/	-da-	wi-
8AAA/J 8AA	16f/L 16a	.	16a/	-ją	-dzę
.	16g/JJ 16b-	[[	16b-\	mi	cię
=22	=22	=22	=22	=22	=22
8DD/L 8D	8gM/L 8b-	>	8b-\	rę-	zda-
8A/J	[8f/J [8a	.	[8a/	-ce,	-la?
8F/L 8d	16f/LL] 16a]	] <	16a/]	.	.
.	16f/ 16a	.	16a/	W bez-	Jak
8AAA/J 8AA	16g/ 16b-	.	16b-\	-sil-	wiat-
.	16f/JJ 16a	[[	16a/	-nej	-ru
!!LO:LB:g=original	!	!	!	!	!
=23	=23	=23	=23	=23	=23
8CC#X/L 8C#X	8fM/L 8a	>	8a/	mę-	fa-
8A/J	[8e/J [8g	.	[8g/	-ce	-la
8G/L 8c#X	16e/LL] 16g]	.	16g/]	.	.
.	16e/ 16g	]	16g/	Chcę	Tak
8AAA/J 8AA	16f/ 16a	.	16a/	zbiec	zni-
.	16e/JJ 16g	.	16g/	od	-kasz
=24	=24	=24	=24	=24	=24
8DD/L 8D	16dM/LL 16f	<	16f/	słoń-	na
.	16c#X/ 16e	.	16e/	-ca	pu-
8A/J	16d/ 16f	.	16f/	nie	-sty-
.	16e/JJ 16g	.	16g/	wiem	-ni
8F/L 8d	4f/ 4a	[	4a/	gdzie	tle
8AAA/J 8AA	.	.	.	.	.
=25	=25	=25	=25	=25	=25
8CC#X/L 8C#X	8r	.	8r	.	.
8A/J	16c#X/LL 16e	.	16e/	I	I
.	16d/JJ 16f	.	16f/	w o-	pra-
8G/L 8c#X	8e/L 8g	<	8g/	-kru-	-gnie-
8AAA/J 8AA	16f/L 16a	.	16a/	-tnej	-nie
.	16g/JJ 16b-	[[	16b-\	u-	mnie
=26	=26	=26	=26	=26	=26
8DD/L 8D	8gM/L 8b-	>	8b-\	-drę-	spa-
8A/J	[8f/J [8a	.	[8a/	-ce	-la
8F/L 8d	16f/LL] 16a]	.	16a/]	.	.
.	16f/ 16dd	] <	16dd\	Reszt-	Gdy
8AAA/J 8AA	16g/ 16ee	.	16ee\	-ka-	znów
.	16a/JJ 16ff	[[	16ff\	-mi	jak
=27	=27	=27	=27	=27	=27
.	(16qqgg/LL	.	.	.	.
.	16qqaa/JJ)	.	.	.	.
8CC#X/L 8C#X	8b-\L 8gg	fz	8gg\	sił,	mi-
8E/J 8G 8B-	16a\L 16ff	>	16ff\	ca-	-raż
.	16g\JJ 16ee	.	16ee\	-ła	za-
8AAA/L 8AA	8a\L 8ff	.	8ff\	drżąc,	-bły-
8G/J 8A 8c#X	16g\L 16ee	.	16ee\	bła-	-śniesz
.	16g\JJ 16ee	]]	16ee\	-gam	we
!!LO:PB:g=original	!	!	!	!	!
=28	=28	=28	=28	=28	=28
8D\L 8A 8d	8f/ 8dd	.	8dd\	cię:	mgle...
((8AA^\J 8A	8r	.	8r	.	.
!	!	!	!LO:TX:a:B:t=Refrain.	!	!
8DD/)) 8AA 8D	(16f#X/LL	p	16f#X/	1-	.
.	16g/	.	16g/	-2. Mów,	.
8r	16g#X/	.	16g#X/	że	.
.	16a/JJ)	.	16a/	ko-	.
*kcancel	*kcancel	*	*kcancel	*	*
=29||	=29||	=29||	=29||	=29||	=29||
*k[f#c#]	*k[f#c#]	*	*k[f#c#]	*	*
!	!LO:TX:b:i:t=dolce	!	!	!	!
8DD/L 8D	(4.f#\ 4.a 4.ff#	.	4.ff#\	-chasz	.
8A/J	.	.	.	.	.
8F#\L 8d	.	.	.	.	.
8A\J	8cc#\)	.	8cc#\	mnie,	.
=30	=30	=30	=30	=30	=30
8FFF#/L 8FF#	(4.e/ 4.a#X 4.ee	.	4.ee\	Ja	.
8A#X/J	.	.	.	.	.
8F#\L 8e	.	.	.	.	.
8A#\J	8dd\)	.	8dd\	chcę	.
=31	=31	=31	=31	=31	=31
8GGG/L 8GG	8e:/L 8g: 8b: 8dd:	.	8dd\	pie-	.
8B/J	16b/L	.	16b\	-szczo-	.
.	16g/JJ	.	16g/	-ty	.
8G/L 8d	[4e/	.	[4e/	twych,	.
8FFF#/J 8FF#	.	.	.	.	.
=32	=32	=32	=32	=32	=32
8EEE/L 8EE	4e/]	.	4e/]	.	.
8B/J	.	.	.	.	.
!LO:SIC:o=8G\L 8dn:t=kasowniki w nawiasie	!	!	!	!	!
8dn	(16d#X/LL	.	16d#X/	Mów,	.
.	16e/	.	16e/	że	.
8B\J	16f#/	.	16f#/	pra-	.
.	16g/JJ)	.	16g/	-gniesz	.
=33	=33	=33	=33	=33	=33
8EE/L 8E	(4.c#/ 4.g 4.cc#	.	4.cc#\	mnie	.
8A/J	.	.	.	.	.
8G\L 8c#	.	.	.	.	.
8A\J	8b\)	.	8b\	I	.
!!LO:LB:g=original	!	!	!	!	!
=34	=34	=34	=34	=34	=34
8AAA/L 8AA	(4.e#X/ 4.a 4.dd	.	4.dd\	chcesz	.
8A/J	.	.	.	.	.
8G\L 8c#	.	.	.	.	.
8A\J	8cc#\)	.	8cc#\	przy-	.
=35	=35	=35	=35	=35	=35
8DD/L 8D	8d:/L 8f#: 8a: 8cc#:	.	8cc#\	-tu-	.
8A/J	16b/L	.	16b\	-lić	.
.	16a/JJ	.	16a/	mnie	.
8F#/L 8d	[4f#/	.	[4f#/	znów.	.
16CC#/L 16C#	.	.	.	.	.
16BBB/JJ 16BB	.	.	.	.	.
=36	=36	=36	=36	=36	=36
8AAA/L 8AA	4f#/]	.	4f#/]	.	.
8F#/J 8A 8d	.	.	.	.	.
4r	16b/LL	.	16b\	Choć	.
.	16a/	.	16a/	wiem,	.
.	16f#/	.	16f#/	że	.
.	16e/JJ	.	16e/	te	.
=37	=37	=37	=37	=37	=37
8FFF#/L 8FF#	(4d/	.	4d/	sło-	.
8A/J	.	.	.	.	.
8F#\L 8d	8f#/L	.	8f#/	-wa	.
8A\J	8a/J)	.	8a/	o-	.
=38	=38	=38	=38	=38	=38
8FFFn/L 8FFn	(4.d/ 4.g#X 4.cc#	.	4.cc#\	-błud-	.
8G#X/J	.	.	.	.	.
8Fn\L 8B	.	.	.	.	.
8G#\J	8b\)	.	8b\	-ne	.
=39	=39	=39	=39	=39	=39
8EEE/L 8EE	16gn/LL 16b	.	16b\	To	.
.	16f#/ 16a	.	16a/	pod-	.
8A/J	16e/ 16g	.	16g/	-stęp-	.
.	16f#/JJ 16a	.	16a/	-na	.
8Gn\L 8c#	[4g/ [4b	.	[4b\	gra,	.
8A\J	.	.	.	.	.
!!LO:LB:g=original	!	!	!	!	!
=40	=40	=40	=40	=40	=40
8AAA/L 8AA	4g/] 4b]	.	4b\]	.	.
8A/J	.	.	.	.	.
8G\L 8c#	16cc#/LL	.	16cc#\	Gdy	.
.	16b/	.	16b\	po-	.
8A\J	16g/	.	16g/	-pa-	.
.	16f#/JJ	.	16f#/	-trzę	.
=41	=41	=41	=41	=41	=41
8BBB#X/L 8BB#X	4d#X/	.	4d#X/	w o-	.
8F#/J 8A	.	.	.	.	.
8CC#/L 8C#	8e/L	.	8e/	-czy	.
8G/J 8A	16f#/L	.	(16f#/LL	twe	.
.	16g/JJ	.	16g/JJ)	.	.
=42	=42	=42	=42	=42	=42
8AAA/L 8AA	(4.c#/ 4.e#X 4.cc#	.	4.cc#\	cud-	.
8A/J	.	.	.	.	.
8G\L 8c#	.	.	.	.	.
8A\J	8b\)	.	8b\	-ne	.
=43	=43	=43	=43	=43	=43
8DD/L 8D	16f#/LL 16a	.	16a/	Wra-	.
.	16en/ 16g	.	16g/	-ca	.
8A/J	16d/ 16f#	.	16f#/	mi-	.
.	16e/JJ 16g	.	16g/	-łość	.
8F#\L 8d	[4f#/ [4a	.	[4a/	ma.	.
8A\J	.	.	.	.	.
=44	=44	=44	=44	=44	=44
8DD/L 8D	4f#/] 4a]	.	4a/]	.	.
8A/J	.	.	.	.	.
8F#\L 8d	(16f#/LL	.	16f#/	Mów,	.
.	16g#X/	.	16g/	że	.
8A\J	16g#/	.	16g#X/	ko-	.
.	16a/JJ)	.	16a/	-chasz	.
=45	=45	=45	=45	=45	=45
8DD/L 8D	(4.f#\ 4.a 4.ff#	.	4.ff#\	mnie,	.
8A/J	.	.	.	.	.
8F#\L 8d	.	.	.	.	.
8A\J	8cc#\)	.	8cc#\	Mój	.
=46	=46	=46	=46	=46	=46
8FFF#/L 8FF#	(4.e/ 4.a#X 4.ee	.	4.ee\	śnie	.
8A#X/J	.	.	.	.	.
8F#\L 8e	.	.	.	.	.
8A#\J	8dd\)	.	8dd\	i	.
!!LO:LB:g=original	!	!	!	!	!
=47	=47	=47	=47	=47	=47
8GGG/L 8GG	8e:/L 8g: 8b: 8dd:	.	8dd\	ust	.
8B/J	16b/L	.	16b\	pra-	.
.	16g/JJ	.	16g/	-gniesz	.
8G/L 8d	[4e/	.	[4e/	mych,	.
8FFF#/J 8FF#	.	.	.	.	.
=48	=48	=48	=48	=48	=48
8EEE/L 8EE	4e/]	.	4e/]	.	.
8B/J	.	.	.	.	.
!LO:SIC:o=8G\L 8dn:t=kasowniki w nawiasie	!	!	!	!	!
8dn	(16d#X/LL	.	16d#X/	Mów,	.
.	16e/	.	16e/	że	.
8B\J	16f#/	.	16f#/	pra-	.
.	16g/JJ)	.	16g/	-gniesz	.
=49	=49	=49	=49	=49	=49
8GGG/L 8GG	(4.c#/ 4.e#X 4.cc#	.	4.cc#\	mnie,	.
8G/J	.	.	.	.	.
8E#X\L 8B	.	.	.	.	.
8G\J	8b\)	.	8b\	Niech	.
=50	=50	=50	=50	=50	=50
8FFF#/L 8FF#	(8.a#X/L	.	8.a#X/	pło-	.
8F#/J	.	.	.	.	.
.	16g/Jk)	.	16g/	-nie	.
8En\L 8A#X	(16f#/LL	.	16f#/	słów	.
.	16a#/	.	16a#/	kła-	.
8F#\J	16b/	.	16b\	-ma-	.
.	16cc#/JJ)	.	16cc#\	-nych	.
=51	=51	=51	=51	=51	=51
8BBB/L 8BB	[2f#/ [2b [2dd	.	[2dd\	szych	.
8F#/J	.	.	.	.	.
8D\L 8B	.	.	.	.	.
8F#\J	.	.	.	.	.
=52	=52	=52	=52	=52	=52
8BBB/L 8BB	4f#/] 4b] 4dd]	.	4dd\]	.	.
8F#/J	.	.	.	.	.
8D\L 8B	16b\LL	.	16b\	Jak	.
.	16cc#\	.	16cc#\	fa-	.
8F#\J	16dd\	.	16dd\	-ta	.
.	16ee\JJ	.	16ee\	mor-	.
=53	=53	=53	=53	=53	=53
8BBB/L 8BB	4.f#\ 4.b 4.dd 4.ff#	.	4.ff#\	-ga-	.
8B/J	.	.	.	.	.
8F#\L 8d	.	.	.	.	.
8B\J	8f#\ 8b 8dd 8ff#	.	8ff#\	-na	.
!!LO:LB:g=original	!	!	!	!	!
=54	=54	=54	=54	=54	=54
8BBB-X/L 8BB-X	4.g\ 4.dd 4.ee	.	4.ee\	Zwo-	.
8G/J	.	.	.	.	.
8E\L 8d	.	.	.	.	.
8G\J	16dd\LL	.	16dd\	-dzi	.
.	16ee\JJ	.	16ee\	mnie	.
=55	=55	=55	=55	=55	=55
!	!LO:TUP:b:problem:klamra łukowa	!	!	!	!
8AAA/L 8AA	12f#/L 12a 12dd	.	12dd\	twój	.
.	12cc#/	.	12cc#\	słod-	.
8A/J	.	.	.	.	.
.	12b/J	.	12b\	-ki	.
8F#\L 8d	[4a/	.	[4a/	głos	.
8A\J	.	.	.	.	.
=56	=56	=56	=56	=56	=56
8DD/L 8D	4a/]	.	4a/]	.	.
8A/J	.	.	.	.	.
8F#\L 8d	(16f#/LL	.	16f#/	Mów,	.
.	16g/	.	16g/	że	.
8A\J	16g#X/	.	16g#X/	ko-	.
.	16a/JJ)	.	16a/	-chasz	.
=57	=57	=57	=57	=57	=57
8BBB/L 8BB	4.g#X\ 4.dd 4.ff#	.	4.ff#\	mnie,	.
8B/J	.	.	.	.	.
8G#X/L 8d	.	.	.	.	.
8EEE/J 8EE	8g#\ 8dd 8ff#	.	8ff#\	Ja	.
=58	=58	=58	=58	=58	=58
8AAA/L 8AA	4.gn\ 4.cc# 4.ee	.	4.ee\	wiem...	.
8A/J	.	.	.	.	.
8Gn/L 8c#	.	.	.	.	.
8AAA/J 8AA	16a\LL 16ff#	.	16ff#\	to	.
.	16g\JJ 16ee	.	16ee\	mój	.
=59	=59	=59	=59	=59	=59
*^	*^	*	*	*	*
8r	[2DD\ [2D	[2dd/	8r	.	[2dd\	los...	.
(8cn/L	.	.	(8f#\L 8a	.	.	.	.
8B-y/	.	.	8e#X\ 8g#X	.	.	.	.
8B-X/J	.	.	8en\J 8gn	.	.	.	.
=60	=60	=60	=60	=60	=60	=60	=60
8A/)	8DD\] 8D]	8dd/]	8d\) 8f#	.	8dd\]	.	.
(8AA^/L 8G	8ryy	(8c#^/L 8e#X 8a	8ryy	>	8r	.	.
8DD/J) 8AA 8F#	4ryy	8d/J) 8f# 8a 8dd	4ryy	.	4r	.	.
8r	.	8r	.	]	.	.	.
*v	*v	*	*	*	*	*	*
*	*v	*v	*	*	*	*
==	==	==	==	==	==
*-	*-	*-	*-	*-	*-
!!!system-decoration: s1{(s2,s3)}
!!!RDF**kern: > = above
!!!RDF**kern: < = below
!!!ENC: Berenika Jozajtis
!!!END: 2023-08-26
!!!ENC: Jan Barakat
!!!END: 2023-09-23
